X:40
T:Bourr\'ee droite du Morvan
C:Trad 2, 38
O:France
M:3/8
L:1/8
K:G
D|:G/F/GA|GFG|A/B/cB|A2D|\
G/F/GA|GFG|A/B/AF|1 G2D:|2 G2B||
d/c/BA|GAG|A/B/cB|A2B|\
d/c/BA|GAG|A/B/AF|1G2B:|2 G2D||**
